X:1
T:Title
%%score { ( 1 3 ) | ( 2 4 ) }
L:1/8
M:6/8
K:G
V:1 treble nm="Grand Piano"
V:3 treble 
V:2 bass 
V:4 bass 
V:1
 z3 z2[Q:1/4=84] [B,D] | [B,G]>[B,G][B,G] [B,G][G,B,D][B,DG] | B>BB BGB | d>dd dcB | %4
 [GB][GA]G [FA]2 [Fc] | B>BB dB[D=FA] | [EG]>[EG][EG] [Ec][=Fd][Ge] | [Gd]>[GB][GB] [EG][EF][^CG] | %8
[M:5/8] [DB][DGB][CFA] [B,G]2 |[M:1/8] d |[M:3/4] [GB]4 z2 | [B,G]3 [B,D]2 G | B>_B =Bd cB | %13
[M:5/8] [FA]2 B c2 |[M:1/8] e |[M:3/4] [Bd]4 z2 | %16
[M:13/16] [EG]/-[EG]/-[EG]-<[EG][Ec]/-[Ec]-<[Ec] z |[M:3/4] [Gd]>[Fc] [DGB][CFA] [CE][CDF] | %18
[M:5/8] G-G- G3 |] %19
V:2
 z3 z2 [G,,G,] | [G,,D,]>[G,,D,][G,,D,] [G,,D,]G,,G,, | [G,DG]>[G,DG][G,DG] [G,DG][G,B,D][G,DG] | %3
 [G,B,G]>[G,B,G][G,B,G] [G,B,G][G,EG][G,DG] | [E,^C][E,C][E,C] [D,D]2 [D,D] | %5
 [G,DG]>[G,DG][G,DG] [G,B,=F][G,DF][K:bass]B,, | [C,C]>[C,C][C,C] [C,G,][C,G,][C,C] | %7
 [D,B,]>[D,D][D,D] [E,B,][E,A,][A,,G,] |[M:5/8] [D,G,]D,D, G,,2 |[M:1/8][K:treble] G | %10
[M:3/4] G,2 z2[K:bass] ^CD | G,>G, G,G, G,[K:treble][G,B,D] | %12
 [G,DG]>[G,^CG] [G,DG][B,DG] [A,DF][G,DG] |[M:5/8][K:bass] z2 G[K:treble] A2 |[M:1/8] c | %15
[M:3/4] G,2 z2 =FF |[M:13/16][K:bass] C,>C,C,.[C,G,]3/2 z [C,C] |[M:3/4] [D,B,]>[D,A,] D,D, D,D, | %18
[M:5/8] z2 C B,2 |] %19
V:3
 x6 | x6 | x6 | x6 | x6 | x6 | x6 | x6 |[M:5/8] x5 |[M:1/8] x |[M:3/4] D2 z D _B=B | x6 | x6 | %13
[M:5/8] x5 |[M:1/8] x |[M:3/4] D2 z G GA |[M:13/16] C>CC z [C,G,]3/2[Ge] |[M:3/4] x6 | %18
[M:5/8] [B,D]2 E D2 |] %19
V:4
 x6 | x6 | x6 | x6 | x6 | x5[K:bass] x | x6 | x6 |[M:5/8] x5 |[M:1/8][K:treble] x | %10
[M:3/4] z2 z[K:bass] .G,3 | x5[K:treble] x | x6 |[M:5/8][K:bass] [D,D]-[D,D]- [D,D]3[K:treble] | %14
[M:1/8] x |[M:3/4] z2 z .[G,B,]3 |[M:13/16][K:bass] x13/2 |[M:3/4] x6 |[M:5/8] G,,-G,,- G,,3 |] %19

